X:76
%
T:Teetotalers Reel
C:Traditional
L:1/8
M:C
Q:1/4=80
K:G treble
%
"G" G2 GF GA Bc | d2 ge dB Ac | "E" BE ED EF GA | "A" BG AF GF EF |
"G" G2 GF GA Bc | d2 ge dB Ac | "Em" BE ED "A" EF GA | "D" BG AF G4 ||
"Em" Be ed e2 ef | "A" ge af gf ed | "D" Bd d^c d2 de | "Bm" f2 af gf ed |
"Em" Be ed e2 ef | "A" ge af gf ed | "D" BE ED EF GA | BG AF G4 |]

